!!!COA: des Prez, Josquin
!!!CDT: ~1450-1521/08/27
!!!OTL: Gloria De beata virgine
!!!AGN: Mass section; Gloria
!!!SCT: NJE 13.8
!!!SCA: New Josquin Edition 13.8
!!!voices: 3
**kern	**kern	**kern
*part3	*part2	*part1
*staff3	*staff2	*staff1
*Ivox	*Ivox	*Ivox
*I"Bassus	*I"Tenor	*I"Discantus
*I'B	*I'T	*I'D
*>[A,B,C]	*>[A,B,C]	*>[A,B,C]
*>A	*>A	*>A
*clefGv2	*clefG2	*clefG2
*k[]	*k[]	*k[]
*M2/1	*M2/1	*M2/1
*met(C|)	*met(C|)	*met(C|)
!!section: Et in terra pax
!!!OMD: Et in terra pax
=1	=1	=1
!	!	!LO:TX:Z=8:t=D only in S. Gall 463; 3-v.excerpt (mm. 100-111) in Glareanus
0ryy	0ryy	0r
=2	=2	=2
0ryy	0ryy	1dd
.	.	1ee
=3	=3	=3
0ryy	0ryy	1b
.	.	1cc
=4	=4	=4
0ryy	0ryy	1dd
.	.	1r
=5	=5	=5
0ryy	0ryy	1g
.	.	1a
=6	=6	=6
0ryy	0ryy	1b
.	.	1cc
=7	=7	=7
0ryy	0ryy	2b
.	.	2g
.	.	1a
=8	=8	=8
0ryy	0ryy	1g
.	.	2r
.	.	[2cc
=9	=9	=9
0ryy	0ryy	2cc]
.	.	2b
.	.	2.cc
.	.	4b
=10	=10	=10
0ryy	0ryy	2a
.	.	2g
.	.	2b
.	.	[2a
=11	=11	=11
0ryy	0ryy	2a]
.	.	1g
.	.	2f#Xi
=12	=12	=12
0ryy	0ryy	0g
=13	=13	=13
0ryy	0ryy	0r
=14	=14	=14
0ryy	0ryy	1dd
.	.	1cc
=15	=15	=15
0ryy	0ryy	1b
.	.	1a
=16	=16	=16
0ryy	0ryy	2b
.	.	1dd
.	.	2cc#Xi
=17	=17	=17
0ryy	0ryy	0dd
=18	=18	=18
0ryy	0ryy	0r
=19	=19	=19
0ryy	0ryy	1dd
.	.	1dd
=20	=20	=20
0ryy	0ryy	1cc
.	.	1b
=21	=21	=21
0ryy	0ryy	1a
.	.	1g
=22	=22	=22
0ryy	0ryy	2r
.	.	2.cc
.	.	4dd
.	.	2ee
=23	=23	=23
0ryy	0ryy	2ff
.	.	1dd
.	.	2cc
=24	=24	=24
0ryy	0ryy	1dd
.	.	1dd
=25	=25	=25
0ryy	0ryy	1.dd
.	.	[2cc
=26	=26	=26
0ryy	0ryy	2cc]
.	.	2b
.	.	2.cc
.	.	4a
=27	=27	=27
0ryy	0ryy	2b
.	.	2a
.	.	1g
=28	=28	=28
0ryy	0ryy	2f
.	.	2.a
.	.	4g
.	.	4f
.	.	4e
=29	=29	=29
0ryy	0ryy	2d
.	.	1g
.	.	2f#Xi
=30	=30	=30
0ryy	0ryy	1g
.	.	1dd
=31	=31	=31
0ryy	0ryy	1ee
.	.	1dd
=32	=32	=32
0ryy	0ryy	1cc
.	.	1b
=33	=33	=33
0ryy	0ryy	2a
.	.	1dd
.	.	2ee
=34	=34	=34
0ryy	0ryy	2.ff
.	.	4ee
.	.	2dd
.	.	2cc
=35	=35	=35
0ryy	0ryy	2.dd
.	.	4ee
.	.	2ff
.	.	[2ee
=36	=36	=36
0ryy	0ryy	2ee]
.	.	1dd
.	.	2cc#Xi
=37	=37	=37
0ryy	0ryy	0dd
=38	=38	=38
0ryy	0ryy	1r
.	.	1g
=39	=39	=39
0ryy	0ryy	1a
.	.	1b
=40	=40	=40
0ryy	0ryy	1cc
.	.	2b
.	.	2g
=41	=41	=41
0ryy	0ryy	1a
.	.	1g
=42	=42	=42
0ryy	0ryy	1r
.	.	1ee
=43	=43	=43
0ryy	0ryy	2ff
.	.	1ee
.	.	[2dd
=44	=44	=44
0ryy	0ryy	2dd]
.	.	2cc#Xi
.	.	1dd
=45	=45	=45
0ryy	0ryy	1r
.	.	1dd
=46	=46	=46
0ryy	0ryy	1ee
.	.	1ff
=47	=47	=47
0ryy	0ryy	1gg
.	.	1ee
=48	=48	=48
0ryy	0ryy	1dd
.	.	2r
.	.	[2ee
=49	=49	=49
0ryy	0ryy	2ee]
.	.	2dd
.	.	2cc
.	.	4b
.	.	4a
=50	=50	=50
0ryy	0ryy	2.g
.	.	4a
.	.	2b
.	.	[2a
=51	=51	=51
0ryy	0ryy	2a]
.	.	1g
.	.	2f#Xi
=52	=52	=52
0ryy	0ryy	0g
=53	=53	=53
0ryy	0ryy	0r
=54	=54	=54
0ryy	0ryy	0r
=55	=55	=55
0ryy	0ryy	0r
=56	=56	=56
0ryy	0ryy	0r
=57	=57	=57
0ryy	0ryy	0r
=58	=58	=58
0ryy	0ryy	0r
=59	=59	=59
0ryy	0ryy	0r
=60	=60	=60
0ryy	0ryy	0r
=61	=61	=61
0ryy	0ryy	0r
=62	=62	=62
0ryy	0ryy	0r
=63	=63	=63
0ryy	0ryy	0r
=64	=64	=64
0ryy	0ryy	0r
=65	=65	=65
0ryy	0ryy	1r
.	.	1cc
=66	=66	=66
0ryy	0ryy	1b
.	.	1b
=67	=67	=67
0ryy	0ryy	1.cc
.	.	4b
.	.	4a
=68	=68	=68
0ryy	0ryy	2g
.	.	1a
.	.	2g#Xi
=69	=69	=69
0ryy	0ryy	1a
.	.	2r
.	.	[2cc
=70	=70	=70
0ryy	0ryy	2cc]
.	.	2dd
.	.	1ee
=71	=71	=71
0ryy	0ryy	2.ff
.	.	8eeL
.	.	8ddJ
.	.	2ff
.	.	[2ee
=72	=72	=72
0ryy	0ryy	2ee]
.	.	1dd
.	.	2cc#Xi
=73	=73	=73
0ryy	0ryy	1dd
.	.	2.cc
.	.	4dd
=74	=74	=74
0ryy	0ryy	2ee
.	.	1ff
.	.	2ee
=75	=75	=75
0ryy	0ryy	2cc
.	.	1ff
.	.	4ee
.	.	4dd
=76	=76	=76
0ryy	0ryy	2cc
.	.	1dd
.	.	2cc#Xi
=77	=77	=77
0ryy	0ryy	0ddl
!!LO:LB:i:g=z
=||	=||	=||
*>B	*>B	*>B
*clefGv2	*clefG2	*clefG2
*k[]	*k[]	*k[]
*M2/1	*M2/1	*M2/1
*met(C|)	*met(C|)	*met(C|)
!!section: Spiritus et alme
!!!OMD: Spiritus et alme
0ryy	0ryy	0r
=78	=78	=78
0ryy	0ryy	1r
.	.	1dd
=79	=79	=79
0ryy	0ryy	1ee
.	.	1ff
=80	=80	=80
0ryy	0ryy	1gg
.	.	1ff
=81	=81	=81
0ryy	0ryy	1ee
.	.	1dd
=82	=82	=82
0ryy	0ryy	1r
.	.	1dd
=83	=83	=83
0ryy	0ryy	1cc
.	.	1b
=84	=84	=84
0ryy	0ryy	1a
.	.	1a
=85	=85	=85
0ryy	0ryy	2.f
.	.	8gL
.	.	8aJ
.	.	2b-Xi
.	.	[2a
=86	=86	=86
0ryy	0ryy	2a]
.	.	1g
.	.	2f#Xi
=87	=87	=87
0ryy	0ryy	0g
=88	=88	=88
0ryy	0ryy	0r
=89	=89	=89
0ryy	0ryy	0r
=90	=90	=90
0ryy	0ryy	0r
=91	=91	=91
0ryy	0ryy	0r
=92	=92	=92
0ryy	0ryy	0r
=93	=93	=93
0ryy	0ryy	0r
=94	=94	=94
0ryy	0ryy	0r
=95	=95	=95
0ryy	0ryy	0r
=96	=96	=96
0ryy	0ryy	0r
=97	=97	=97
0ryy	0ryy	0r
=98	=98	=98
0ryy	0ryy	0r
=99	=99	=99
1r	0ryy	1r
1E	.	1gg
=100	=100	=100
1D	1r	1ff
1c	1g	1ee
=101	=101	=101
1d	2f	2dd
.	2.a	2.ff
2A	.	.
.	4g	4ee
2d	2f	[2dd
=102	=102	=102
1A	1e	2dd]
.	.	2cc#Xi
2B	1d	1dd
[2G	.	.
=103	=103	=103
2G]	1g	2r
1c	.	1ee
.	1a	.
[2d	.	[2ff
=104	=104	=104
2d]	2f	2ff]
1c	1g	1ee
2d	2f	[2dd
=105	=105	=105
2B	1g	2dd]
1c	.	1ee
.	2e	.
[2A	[2a	[2cc
=106	=106	=106
2A]	2a]	2cc]
2B	1g	2b
2c	.	1a
2d	2f	.
=107	=107	=107
2e	2g	1g
1c	2.e	.
.	.	2r
.	4d	.
2A	4c	[2cc
.	4B	.
=108	=108	=108
1c	1A	4cc]
.	.	4dd
.	.	2ee
1d	2r	2.ff
.	2a	.
.	.	8eeL
.	.	8ffJ
=109	=109	=109
2e	2g	2gg
2c	2a	2ee
2d	2f	2dd
2A	[2a	[2ff
=110	=110	=110
2c	4a]	4ff]
.	4g	4ee
2d	2f	1dd
1A	1e	.
.	.	2cc#Xi
=111	=111	=111
0Dl	0dl	0dd
=112	=112	=112
0ryy	0ryy	0r
=113	=113	=113
0ryy	0ryy	0r
=114	=114	=114
0ryy	0ryy	0r
=115	=115	=115
0ryy	0ryy	0r
=116	=116	=116
0ryy	0ryy	0r
=117	=117	=117
0ryy	0ryy	0r
=118	=118	=118
0ryy	0ryy	0r
=119	=119	=119
0ryy	0ryy	0r
=120	=120	=120
0ryy	0ryy	0r
=121	=121	=121
0ryy	0ryy	0r
=122	=122	=122
0ryy	0ryy	0r
=123	=123	=123
0ryy	0ryy	0r
=124	=124	=124
0ryy	0ryy	0r
=125	=125	=125
0ryy	0ryy	0r
=126	=126	=126
0ryy	0ryy	0r
=127	=127	=127
0ryy	0ryy	0r
=128	=128	=128
0ryy	0ryy	0r
=129	=129	=129
0ryy	0ryy	0r
=130	=130	=130
0ryy	0ryy	0r
=131	=131	=131
0ryy	0ryy	1.a
.	.	4g
.	.	4a
=132	=132	=132
0ryy	0ryy	2b
.	.	2a
.	.	2b
.	.	[2a
=133	=133	=133
0ryy	0ryy	4a]
.	.	4g
.	.	1g
.	.	2f#Xi
=134	=134	=134
0ryy	0ryy	0g
=135	=135	=135
0ryy	0ryy	0r
=136	=136	=136
0ryy	0ryy	0r
=137	=137	=137
0ryy	0ryy	0r
=138	=138	=138
0ryy	0ryy	0r
=139	=139	=139
0ryy	0ryy	1r
.	.	1gg
=140	=140	=140
0ryy	0ryy	1ff
.	.	1ee
=141	=141	=141
0ryy	0ryy	1dd
.	.	1cc
=142	=142	=142
0ryy	0ryy	2.dd
.	.	4ee
.	.	2ff
.	.	[2ee
=143	=143	=143
0ryy	0ryy	2ee]
.	.	1dd
.	.	2cc#Xi
=144	=144	=144
0ryy	0ryy	0ddl
!!LO:LB:i:g=z
=||	=||	=||
*>C	*>C	*>C
*clefGv2	*clefG2	*clefG2
*k[]	*k[]	*k[]
*M2/1	*M2/1	*M2/1
*met(C|)	*met(C|)	*met(C|)
!!section: Quoniam tu solus
!!!OMD: Quoniam tu solus
0ryy	0ryy	0r
=145	=145	=145
0ryy	0ryy	0r
=146	=146	=146
0ryy	0ryy	0r
=147	=147	=147
0ryy	0ryy	0r
=148	=148	=148
0ryy	0ryy	0r
=149	=149	=149
0ryy	0ryy	0r
=150	=150	=150
0ryy	0ryy	0r
=151	=151	=151
0ryy	0ryy	0r
=152	=152	=152
0ryy	0ryy	1r
.	.	2.g
.	.	4a
=153	=153	=153
0ryy	0ryy	2b-X
.	.	1a
.	.	4g
.	.	4f
=154	=154	=154
0ryy	0ryy	2e
.	.	1a
.	.	[2g
=155	=155	=155
0ryy	0ryy	2g]
.	.	2f#Xi
.	.	1g
=156	=156	=156
0ryy	0ryy	2r
.	.	2g
.	.	2f
.	.	2a
=157	=157	=157
0ryy	0ryy	2g
.	.	2cc
.	.	2b
.	.	[2cc
=158	=158	=158
0ryy	0ryy	4cc]
.	.	4a
.	.	1dd
.	.	2cc#Xi
=159	=159	=159
0ryy	0ryy	1dd
.	.	1a
=160	=160	=160
0ryy	0ryy	1cc
.	.	1dd
=161	=161	=161
0ryy	0ryy	1.ff
.	.	[2ee
=162	=162	=162
0ryy	0ryy	2ee]
.	.	1dd
.	.	2cc#Xi
=163	=163	=163
0ryy	0ryy	0dd
=164	=164	=164
0ryy	0ryy	0r
=165	=165	=165
0ryy	0ryy	0r
=166	=166	=166
0ryy	0ryy	0r
=167	=167	=167
0ryy	0ryy	0r
=168	=168	=168
0ryy	0ryy	1r
.	.	1dd
=169	=169	=169
0ryy	0ryy	1ee
.	.	1ff
=170	=170	=170
0ryy	0ryy	2.gg
.	.	4ff
.	.	4ee
.	.	4dd
.	.	[2ee
=171	=171	=171
0ryy	0ryy	2ee]
.	.	1dd
.	.	2cc#Xi
=172	=172	=172
0ryy	0ryy	0dd
=173	=173	=173
0ryy	0ryy	0r
=174	=174	=174
0ryy	0ryy	0r
=175	=175	=175
0ryy	0ryy	0r
=176	=176	=176
0ryy	0ryy	0r
=177	=177	=177
0ryy	0ryy	1gg
.	.	1aa
=178	=178	=178
0ryy	0ryy	1gg
.	.	2dd
.	.	[2ee
=179	=179	=179
0ryy	0ryy	4ee]
.	.	4ff
.	.	2gg
.	.	2.ff
.	.	8eeL
.	.	8ddJ
=180	=180	=180
0ryy	0ryy	2dd
.	.	2cc
.	.	1ee
=181	=181	=181
0ryy	0ryy	1ee
.	.	2.ff
.	.	8eeL
.	.	8ddJ
=182	=182	=182
0ryy	0ryy	1cc
.	.	2ff
.	.	[2ee
=183	=183	=183
0ryy	0ryy	2ee]
.	.	1dd
.	.	2cc#Xi
=184	=184	=184
0ryy	0ryy	0dd
=185	=185	=185
0ryy	0ryy	1r
.	.	1ee
=186	=186	=186
0ryy	0ryy	2cc
.	.	1cc
.	.	2b
=187	=187	=187
0ryy	0ryy	1a
.	.	1g
=188	=188	=188
0ryy	0ryy	0r
=189	=189	=189
0ryy	0ryy	1cc
.	.	2.b
.	.	4cc
=190	=190	=190
0ryy	0ryy	2dd
.	.	1ee
.	.	[2dd
=191	=191	=191
0ryy	0ryy	2dd]
.	.	2cc#Xi
.	.	1dd
=192	=192	=192
0ryy	0ryy	2r
.	.	1dd
.	.	[2gg
=193	=193	=193
0ryy	0ryy	1.gg]
.	.	2ff
=194	=194	=194
0ryy	0ryy	1gg
.	.	1dd
=195	=195	=195
0ryy	0ryy	1ee
.	.	1ff
=196	=196	=196
0ryy	0ryy	2ee
.	.	2ff
.	.	2ee
.	.	[2dd
=197	=197	=197
0ryy	0ryy	2dd]
.	.	2cc#Xi
.	.	1dd
=198	=198	=198
0ryy	0ryy	2r
.	.	1dd
.	.	[2b
=199	=199	=199
0ryy	0ryy	2b]
.	.	1cc
.	.	[2a
=200	=200	=200
0ryy	0ryy	2a]
.	.	1b
.	.	[2g
=201	=201	=201
0ryy	0ryy	2g]
.	.	2.a
.	.	4g
.	.	4f
.	.	4e
=202	=202	=202
0ryy	0ryy	2d
.	.	2e
.	.	2.f
.	.	4g
=203	=203	=203
0ryy	0ryy	2a
.	.	2b
.	.	2.cc
.	.	4dd
=204	=204	=204
0ryy	0ryy	2ee
.	.	2ff
.	.	2.dd
.	.	4cc
=205	=205	=205
0ryy	0ryy	4b-Xi
.	.	4a
.	.	1b-X
.	.	4a
.	.	4g
=206	=206	=206
0ryy	0ryy	2f
.	.	2g
.	.	2a
.	.	[2f
=207	=207	=207
0ryy	0ryy	4f]
.	.	4d
.	.	1g
.	.	2f#Xi
=208	=208	=208
0ryy	0ryy	0gl
==	==	==
*-	*-	*-
!!!RDF**kern: l=long note in original notation
!!!system-decoration: s1,s2,s3
!!!RDF**kern: i = editorial accidental
!!!ENC: Jesse Rodin
!!!END: 2020/10/20
!!!EED: Jesse Rodin
!!!EEV: 2021/03/25
!!attribution-level@Jos: 4a (the rest [double question mark])
!!!ONB: Translated from MusicXML and edited on 2021/03/25 by Craig Sapp
!!muse2ps: C^@{COA}??\n@{SCT}^i2I150v95,95,150c125
